tools/download-figma-icons/icons/solid/error.svg

<svg width="24" height="24" viewBox="0 0 24 24" fill="none" xmlns="http://www.w3.org/2000/svg">
<path fill-rule="evenodd" clip-rule="evenodd" d="M12.9587 12.5794C12.9587 13.1119 12.5327 13.5394 11.9987 13.5394C11.4647 13.5394 11.038 13.1134 11.038 12.5794V7.53955C11.038 7.00632 11.4647 6.57958 11.9987 6.57958C12.5327 6.57958 12.9587 7.00556 12.9587 7.53955V12.5794ZM12.6737 17.1595C12.4967 17.3732 12.2484 17.4437 12.0002 17.4437C11.7152 17.4437 11.467 17.3357 11.2892 17.1595C11.1475 16.9817 11.0402 16.7695 11.0402 16.4852C11.044 16.2317 11.146 15.9895 11.3252 15.811C11.6807 15.4555 12.3182 15.4555 12.6737 15.811C12.8529 15.9895 12.9549 16.2317 12.9587 16.4852C12.9587 16.7695 12.8499 16.9817 12.6737 17.1595ZM12.0004 5.33205e-06C5.37582 0.00675513 0.00673222 5.37509 0.0007324 11.9996C0.00673222 18.6242 5.37582 23.9925 12.0004 23.9993C18.6242 23.9925 23.9933 18.6242 24 11.9996C24.003 8.81599 22.7393 5.76208 20.4886 3.5114C18.2372 1.25997 15.1833 -0.00299458 12.0004 5.33205e-06Z" fill="black"/>
</svg>

<svg xmlns="http://www.w3.org/2000/svg" width="24" height="24" fill="none" viewBox="0 0 24 24"><path fill="currentColor" fill-rule="evenodd" d="M12.959 12.58c0 .532-.426.96-.96.96a.956.956 0 0 1-.961-.96V7.54c0-.534.427-.96.96-.96.535 0 .96.426.96.96zm-.285 4.58c-.177.213-.426.284-.674.284a1 1 0 0 1-.71-.284 1.04 1.04 0 0 1-.25-.675.97.97 0 0 1 .285-.674c.356-.355.993-.355 1.349 0 .179.178.28.42.285.674a.9.9 0 0 1-.285.675M12 0C5.376.007.007 5.375 0 12c.007 6.624 5.376 11.993 12 12 6.624-.008 11.993-5.376 12-12A11.99 11.99 0 0 0 12 0" clip-rule="evenodd"/></svg>
